public/images/well/shape/9.svg

<svg width="100%" height="100%" preserveAspectRatio="none" viewBox="0 0 132 132" fill="none" xmlns="http://www.w3.org/2000/svg">
<path d="M65.2982 125.136C73.2163 125.136 81.0376 126.847 88.5441 130.229C90.5781 131.149 91.9341 131.286 92.5637 131.286C92.8785 131.286 93.0722 131.254 93.1691 131.23C93.4354 130.842 94.0004 129.502 93.9843 126.928C93.8551 112.076 100.45 105.417 102.621 103.23C111.362 94.408 122.436 94.408 126.077 94.408H126.359H126.44C128.805 94.408 130.104 93.73 130.411 93.278C130.629 92.9471 130.806 91.7768 129.91 89.6943C120.523 67.7725 125.366 50.7257 131.162 40.2087C131.21 39.684 130.976 38.4975 130.249 37.6016C129.797 37.0366 129.37 36.7703 128.183 36.7703C128.054 36.7703 127.917 36.7703 127.772 36.7864C126.738 36.8429 125.729 36.8752 124.777 36.8752C115.495 36.8752 107.916 33.9614 102.249 28.2065C93.7421 19.5782 93.8955 9.18227 93.9843 3.59687V3.54844C94.0085 1.71624 92.9511 0.55396 92.3781 0.150391C83.3945 3.39509 74.7016 4.97708 65.8149 4.97708C56.9282 4.97708 48.7518 3.52423 39.5664 0.537814C39.0821 0.376386 38.7512 0.344102 38.5656 0.344102C38.4122 0.344102 38.0166 0.344104 37.4839 0.957529C37.0965 1.40953 36.5154 2.35388 36.5477 3.9843C39.6956 15.1228 36.1844 23.3153 32.5926 28.2953C27.9434 34.7363 20.5742 38.3442 12.9467 38.3442C10.4203 38.3442 7.86154 37.9487 5.36746 37.1254C5.23831 37.1093 5.01244 37.0931 4.68958 37.0931C3.16407 37.0931 1.68696 37.4402 0.823307 37.7388C0.46009 38.1666 0.193716 38.5218 0 38.8123C7.97462 55.7542 8.19246 72.583 0.710196 91.6799C0.653695 91.8171 0.201787 93.0117 0.403574 93.3749C0.686076 93.8753 1.38826 94.3193 1.77569 94.4161C2.49405 94.3919 3.20443 94.3758 3.88243 94.3758C13.7296 94.3758 21.7446 97.4025 27.7014 103.383C36.8302 112.544 36.7979 124.53 36.7818 128.469C36.7818 129.042 36.8785 129.728 37.6453 130.495C38.3798 131.23 39.3485 131.609 39.9296 131.609C40.0749 131.609 40.1234 131.585 40.2041 131.544C47.8317 127.347 56.5165 125.136 65.3144 125.136H65.2982Z" fill="#0E0E0E"/>
</svg>

<svg preserveAspectRatio="none" viewBox="0 0 132 132" fill="none" xmlns="http://www.w3.org/2000/svg"><path d="M65.298 125.136c7.918 0 15.74 1.711 23.246 5.093 2.034.92 3.39 1.057 4.02 1.057.315 0 .508-.032.605-.056.266-.388.831-1.728.815-4.302-.129-14.852 6.466-21.511 8.637-23.698 8.741-8.822 19.815-8.822 23.456-8.822h.363c2.365 0 3.664-.678 3.971-1.13.218-.33.395-1.501-.501-3.584-9.387-21.922-4.544-38.968 1.252-49.485.048-.525-.186-1.712-.913-2.607-.452-.565-.879-.832-2.066-.832-.129 0-.266 0-.411.016a55.359 55.359 0 0 1-2.995.09c-9.282 0-16.861-2.915-22.528-8.67-8.507-8.628-8.353-19.024-8.265-24.61v-.048C94.01 1.716 92.951.554 92.378.15c-8.984 3.245-17.676 4.827-26.563 4.827S48.752 3.524 39.566.537c-.484-.16-.815-.193-1-.193-.154 0-.55 0-1.082.614-.388.452-.969 1.396-.936 3.026 3.148 11.139-.364 19.331-3.955 24.311a24.219 24.219 0 0 1-27.226 8.83 5.798 5.798 0 0 0-.677-.032 12.6 12.6 0 0 0-3.867.646c-.363.428-.63.783-.823 1.073C7.975 55.754 8.192 72.583.71 91.68c-.056.137-.508 1.332-.306 1.695.282.5.984.944 1.372 1.041.718-.024 1.428-.04 2.106-.04 9.848 0 17.863 3.026 23.82 9.007 9.128 9.161 9.096 21.147 9.08 25.086 0 .573.097 1.259.863 2.026.735.735 1.703 1.114 2.285 1.114a.485.485 0 0 0 .274-.065c7.628-4.197 16.313-6.408 25.11-6.408h-.016Z" fill="#0E0E0E"/></svg>
